!!!COM: Bach, Johann Sebastian
!!!OPR: Joh. Seb. Bachs vierstimmige Choralgesänge
!!!XEN: Four-part Chorales
!!!OTL: Chorale 182. Wie bist du Seele in mir so gar betrübt
!!!SCT: BWV 435
!!!SCA: Thematisch-systematisches Verzeichnis der musikalischen Werke Johann Sebastian Bach: Bach-Werke-Verzeichnis (Schmieder)
!!!YOR: Bach Gesellschaft Edition xxxix
!!!ENC: Steven Rasmussen
!!!CDT: 1685/3//-1750/7/28/
!!!OCY: Deutschland
!!!YEC: Copyright (c) 1994, 2000 Center for Computer Assisted Research in the Humanities
!!!YEM: Rights to all derivative editions reserved
!!!YEN: United States of America
**kern	**kern	**kern	**kern	**silbe
*I:[BASSO]	*I:[TENORE]	*I:[ALTO]	*I:[SOPRANO]	*I:[SOPRANO]
*clefF4	*clefGv2	*clefG2	*clefG2	*
*k[f#]	*k[f#]	*k[f#]	*k[f#]	*
*e:	*e:	*e:	*e:	*
*M4/4	*M4/4	*M4/4	*M4/4	*
8EL	8GL	8eL	4b	Wie
8F#J	8AJ	8d#J	.	.
=1	=1	=1	=1	=1
4G	(8B	8eL	4b	bist
.	4e)	8BJ	.	.
8GL	.	8c#L	4a	du
8F#J	8A	8d#J	.	.
8EL	2B	8eL	2g	See-
8F#	.	8d#J	.	.
8G	.	4e	.	.
8EJ	.	.	.	.
=2	=2	=2	=2	=2
4BB;	4B;	(8eL	4f#;	-le
.	.	8d#;J)	.	.
4E	4B	4e	4g	in
4F#	8AL	8eL	4a	mir
.	16BL	8d#J	.	.
.	16cJJ	.	.	.
8GL	4B	4e	4g	so
8EJ	.	.	.	.
=3	=3	=3	=3	=3
4AA#	8c#L	4e	4f#	gar
.	8F#J	.	.	.
4BB	8BL	4d#	4f#	be-
.	8AJ	.	.	.
4EE;	4G;	4B;	4e;	-trübt?
4BB	4B	4d#	4f#	Dein
=4	=4	=4	=4	=4
4E	8BL	4e	4g	Hei-
.	8cJ	.	.	.
4F#	8BL	8dL	4a	-land
.	8AJ	8cJ	.	.
4G	8GL	8BL	2b	le-
.	8BJ	8dJ	.	.
8GGL	4d	4g	.	.
8BBJ	.	.	.	.
=5	=5	=5	=5	=5
4D;	4d;	4f#;	4a;	-bet,
8AL	8cL	4e	4cc	der
8GJ	8BJ	.	.	.
8F#L	8AL	4d	4cc	dich
8DJ	8F#J	.	.	.
8GL	4G	4d	4b	ja
8BBJ	.	.	.	.
=6	=6	=6	=6	=6
8CL	4G	4e	4a	treu-
8AAJ	.	.	.	.
4D	4F#	8dL	4a	-lich
.	.	8cJ	.	.
4GG;	4G;	4B;	4g;	liebt;
8DL	8F#L	4d	4a	er-
8EJ	8GJ	.	.	.
=7	=7	=7	=7	=7
8F#L	4A	8dL	4a	-gib
8GJ	.	8c#J	.	.
8F#L	4A	8dL	4a	dich
8EJ	.	8eJ	.	.
8DL	4d	4f#	4a	gänz-
8EJ	.	.	.	.
8DL	4A	4d	4f#	-lich
8CJ	.	.	.	.
=8	=8	=8	=8	=8
8BBL	4B	8dL	4g	sei-
8CJ	.	8eJ	.	.
8BBL	4c	4f#	4a	-nem
8AAJ	.	.	.	.
8GGL	4d	4g	2b	Wil-
8AA	.	.	.	.
8BB	4G	4d	.	.
8CJ	.	.	.	.
=9	=9	=9	=9	=9
4D;	(8GL	4d;	4a;	-len,
.	8F#;J)	.	.	.
4D#	8BL	4f#	4f#	er
.	8AJ	.	.	.
4E	4G	8BL	4g	kann
.	.	8eJ	.	.
4F#	4d	8dL	4a	al-
.	.	8cJ	.	.
=10	=10	=10	=10	=10
4G	8dL	4B	4b	-lein
.	8fnJ	.	.	.
4G#	8eL	4e	4b	dein
.	8dJ	.	.	.
4A	4c	8eL	4a	Trau-
.	.	8d#J	.	.
4A#	4c#	4e	8gL	-ern
.	.	.	8f#J	.
=11	=11	=11	=11	=11
4B	4.B	4e	2f#	stil-
4BB	.	4d#	.	.
.	8A	.	.	.
4E;	4G#;	4B;	4e;	-len.
==|!	==|!	==|!	==|!	==|!
*-	*-	*-	*-	*-
!!!RWG: Key is interpreted using the Humdrum key tool.
!!!URL-pdf: https://s9.imslp.org/files/imglnks/usimg/6/6b/IMSLP24489-PMLP09471-CCARH_Bach_Chorales.pdf#page=126 Musedata edition
!!!URL-pdf: https://s9.imslp.org/files/imglnks/usimg/7/7a/IMSLP04155-Bach_-_BGA_253-438.pdf#page=100 	Bach-Gesellschaft Ausgabe, Band 39 (pp.175-276) Leipzig: Breitkopf und Härtel, 1892. Plate B.W. XXXIX.
!!!END: 1994/08/09
!!!EMD: Converted from MuseData to Humdrum Dec 19, 2000, by Andreas Kornstaedt using muse2kern.
!!!EED: Craig Stuart Sapp
!!!EEV: 2024/03/31
!!!filter-keyboard: extract -i kern | satb2gs
!!!title: @{OTL} (@{SCT})
